X:1
T:Title
L:1/4
M:4/4
I:linebreak $
K:D
V:1 treble nm="Voice"
V:1
"D" f/g/f/e/ d3/2 B/ | A D F A |"G" G E"A" e3/2 d/ | c B PB A |"D" f/g/f/e/ d/e/d/B/ | A D F A | %6
"G" G E"A" e3/2 f/ |1 e d"D" d e :|2 e d"D" d3/2 B/ |:"D" A f f/e/ f |"G" B g g/f/ g | %11
"D" A f f/e/ f |"A" e/f/e/d/ c B |"D" A f f/e/ f |"G" B g g/f/g/a/ | b a g c |1 %16
"A" e d"D" d3/2 B/ :|2"A" e d"D" d e |] %18
